icons/lungs-fill.svg

<svg viewBox="0 0 24 24" fill="currentColor" xmlns="http://www.w3.org/2000/svg">
    <path d="M8.5 5.5C9.91162 5.97054 10.5483 7.65881 10.8268 9.52302L6.30385 12.134L7.30385 13.866L11.014 11.7247C11.0598 13.0789 11 14.3085 11 15C11 18 10 21 6 21C2 21 2 21 2 17C2 9.5 5.50055 4.50018 8.5 5.5ZM22.0012 17L22.001 17.436C21.9956 21 21.8503 21 18.0012 21C14.0012 21 13.0013 18 13.0013 15C13.0013 14.3086 12.9415 13.0795 12.9872 11.7257L16.6962 13.866L17.6962 12.134L13.1743 9.52402C13.4527 7.65942 14.0894 5.97062 15.5013 5.5C18.5007 4.50018 22.0012 9.5 22.0012 17ZM13 2V11H11V2H13Z"/>
</svg>

<svg xmlns="http://www.w3.org/2000/svg" viewBox="0 0 24 24">
    <g>
        <path fill="none" d="M0 0H24V24H0z"/>
        <path d="M8.5 5.5c1.412.47 2.048 2.159 2.327 4.023l-4.523 2.611 1 1.732 3.71-2.141C11.06 13.079 11 14.308 11 15c0 3-1 6-5 6s-4 0-4-4C2 9.5 5.5 4.5 8.5 5.5zM22.001 17v.436c-.005 3.564-.15 3.564-4 3.564-4 0-5-3-5-6 0-.691-.06-1.92-.014-3.274l3.71 2.14 1-1.732-4.523-2.61c.279-1.865.915-3.553 2.327-4.024 3-1 6.5 4 6.5 11.5zM13 2v9h-2V2h2z"/>
    </g>
</svg>
